X: 813
T: Hennessy's hornpipe
C: anon.
O: Ireland
B: Francis O'Neill: "The Dance Music of Ireland" (1907) no. 813
R: Hornpipe
Z: Transcribed by Frank Nordberg - http://www.musicaviva.com
F: http://www.musicaviva.com/abc/tunes/ireland/oneill-1001/oneill-1001-081
3.abc
M: C|
L: 1/8
K: G
D2|GABc dBGB|g2(fg) edBA|GABc dedc|BGAF GFED|GABc dBGB|g2(fg) edBA|dedc B
GAF|G2GGG2:|
|:(Bc)|d^cde gB (3.B.B.B|g2ag fddd|gfed eB (3.B.B.B|eddd d2(ef)|gedc BAGB
|ABAG FGAB|dedc BGAF|G2GGG2:|
W:
W:
W: From Musica Viva - http://www.musicaviva.com
W: the Internet center for free sheet music downloads.


